!!!COM:	Compere, Loyset
!!!CDT:	~1445///-1518/08/16
!!!OTL:	Alons fere nos barbes
!!!AGN:	Song; Chanson
!!!SCT:	Com3001
!!!SCA:	Com3001
!!!voices:	4
**kern	**text	**kern	**text	**kern	**text	**kern	**text
*staff4	*staff4	*staff3	*staff3	*staff2	*staff2	*staff1	*staff1
*Ivox	*	*Ivox	*	*Ivox	*	*Ivox	*
*I"Bassus	*	*I"Tenor	*	*I"Altus	*	*I"Superius	*
*I'B	*	*I'T	*	*I'A	*	*I'S	*
*clefF4	*	*clefGv2	*	*clefGv2	*	*clefG2	*
*k[b-]	*	*k[b-]	*	*k[b-]	*	*k[b-]	*
*M2/1	*	*M2/1	*	*M2/1	*	*M2/1	*
*met(C|)	*	*met(C|)	*	*met(C|)	*	*met(C|)	*
=1-	=1-	=1-	=1-	=1-	=1-	=1-	=1-
1G	A-	0r	.	1d	A-	1r	.
[1c	-lons	.	.	[1e	-lons	1g	A-
=2	=2	=2	=2	=2	=2	=2	=2
2c]	.	0r	.	2e]	.	1.a	-lons
2c	fai-	.	.	2e	fai-	.	.
2c	-re	.	.	2e	-re	.	.
2c	nos	.	.	2e	nos	2a	fai-
=3	=3	=3	=3	=3	=3	=3	=3
1d	bar-	0r	.	1f	bar-	2a	-re
.	.	.	.	.	.	2a	nos
1d	-bes,	.	.	1f	-bes,	1b-	bar-
=4	=4	=4	=4	=4	=4	=4	=4
1r	.	1G	A-	0d	.	1b-	-bes,
1D	A-	[1A	-lons	.	.	1r	.
=5	=5	=5	=5	=5	=5	=5	=5
0F	-lons	2A]	.	1c	A-	1r	.
.	.	2A	fai-	.	.	.	.
.	.	2A	-re	1f	-lons	1a	A-
.	.	2A	nos	.	.	.	.
=6	=6	=6	=6	=6	=6	=6	=6
1.G	.	1B-	bar-	2e	gen-	2.g	-lons
.	.	.	.	1d	-tils	.	.
.	.	.	.	.	.	4a	.
.	.	1B-	-bes,	.	.	4b-	.
.	.	.	.	.	.	4cc	.
2D	gen-	.	.	4c	.	[2dd	.
.	.	.	.	4B-	.	.	.
=7	=7	=7	=7	=7	=7	=7	=7
1F	-tils	0r	.	1A	ga-	2dd]	.
.	.	.	.	.	.	2cc	gen-
1G	ga-	.	.	1d	-lans.	2b-	-tils
.	.	.	.	.	.	4a	ga-
.	.	.	.	.	.	4g	.
=8	=8	=8	=8	=8	=8	=8	=8
1D	-lans.	1A	A-	2r	.	1f	-lans.
.	.	.	.	2.d	A-	.	.
2r	.	2.G	-lons	.	.	2r	.
.	.	.	.	4c	.	.	.
[2G	A-	.	.	4B-	.	2g	A-
.	.	4A	.	4A	.	.	.
=9	=9	=9	=9	=9	=9	=9	=9
2G]	.	4B-	.	2G	-lons	2g	-lons
.	.	4c	.	.	.	.	.
2D	-lons	1d	.	2A	gen-	2f	gen-
2G	gen-	.	.	2B-	-tils	2g	-tils
2C	-tils	2c	gen-	2c	ga-	2a	ga-
=10	=10	=10	=10	=10	=10	=10	=10
1G	ga-	2B-	-tils	[0d	-lans.	2.b-	-lans.
.	.	2B-	ga-	.	.	.	.
.	.	.	.	.	.	8aL	.
.	.	.	.	.	.	8gJ	.
[1D	-lans.	[1A	-lans.	.	.	[1f	.
=11	=11	=11	=11	=11	=11	=11	=11
1D]	.	1A]	.	1d]	.	1f]	.
1r	.	1r	.	1r	.	1r	.
=12	=12	=12	=12	=12	=12	=12	=12
1G	La	1B-	La	1d	La	1g	La
[1F	bar-	[1c	bar-	[1f	bar-	[1a	bar-
=13	=13	=13	=13	=13	=13	=13	=13
2F]	.	2c]	.	2f]	.	2a]	.
2F	-bie-	2c	-bie-	2f	-bie-	2a	-bie-
2F	-re	2c	-re	2f	-re	2a	-re
2A	les	2c	les	2f	les	2a	les
=14	=14	=14	=14	=14	=14	=14	=14
1.G	mo-	1d	mo-	1g	mo-	1b-	mo-
.	.	1d	-glie	2d	-glie	1b-	-glie
2D	-glie	.	.	2f	.	.	.
=15	=15	=15	=15	=15	=15	=15	=15
1F	sou-	1c	sou-	1f	sou-	1a	sou-
2G	-vent	2B-	-vent	2d	-vent	2g	-vent
[2F	deux	[2c	deux	[2f	deux	[2a	deux
=16	=16	=16	=16	=16	=16	=16	=16
4F]	.	4c]	.	4f]	.	2a]	.
4G	&agrave;	4B-	.	4e	.	.	.
2E	la	2G	&agrave;	2c	.	1g	&agrave;
1D	fois.	1A	la	[1d	.	.	.
.	.	.	.	.	.	2f#i	la
=17	=17	=17	=17	=17	=17	=17	=17
1r	.	1G	fois.	2d]	.	0g	fois.
.	.	.	.	4c	&agrave;	.	.
.	.	.	.	4B-	.	.	.
1C	Quant	1r	.	1e-i	la	.	.
=18	=18	=18	=18	=18	=18	=18	=18
1.G	son	1G	Quant	1d	fois.	0r	.
.	.	[1d	son	1r	.	.	.
2F	ma-	.	.	.	.	.	.
=19	=19	=19	=19	=19	=19	=19	=19
2F	-ri	2d]	.	0r	.	0r	.
2E	re-	2c	ma-	.	.	.	.
1F	-vient	2.c	-ri	.	.	.	.
.	.	4B-	re-	.	.	.	.
=20	=20	=20	=20	=20	=20	=20	=20
1F	de	1c	-vient	0r	.	0r	.
[1C	fai-	1c	de	.	.	.	.
=21	=21	=21	=21	=21	=21	=21	=21
2C]	.	1.G	fai-	0r	.	0r	.
2D	-re	.	.	.	.	.	.
2E	sa	.	.	.	.	.	.
2F	be-	2A	-re	.	.	.	.
=22	=22	=22	=22	=22	=22	=22	=22
1D	-so-	2B-	sa	0r	.	0r	.
.	.	2c	be-	.	.	.	.
[1C	-gne,	1A	-so-	.	.	.	.
=23	=23	=23	=23	=23	=23	=23	=23
1C]	.	0G	-gne,	1r	.	1r	.
1r	.	.	.	1G	Il	1g	Il
=24	=24	=24	=24	=24	=24	=24	=24
0r	.	0r	.	1.d	trou-	1.f	trou-
.	.	.	.	2c	-ve	2e	-ve
=25	=25	=25	=25	=25	=25	=25	=25
0r	.	0r	.	2c	ses	2d	ses
.	.	.	.	2Bni	mi-	2d	mi-
.	.	.	.	1c	-gnons	[1c	-gnons
=26	=26	=26	=26	=26	=26	=26	=26
0r	.	0r	.	0c	Qui	1c]	.
.	.	.	.	.	.	1e	Qui
=27	=27	=27	=27	=27	=27	=27	=27
0r	.	0r	.	1.G	luy	2d	luy
.	.	.	.	.	.	2g	font
.	.	.	.	.	.	2b-	vi-
.	.	.	.	2A	font	[2a	-gle-
=28	=28	=28	=28	=28	=28	=28	=28
0r	.	0r	.	2B-	vi-	4a]	.
.	.	.	.	.	.	4g	.
.	.	.	.	2c	-gle-	1g	-co-
.	.	.	.	1A	-co-	.	.
.	.	.	.	.	.	2f#i	.
=29	=29	=29	=29	=29	=29	=29	=29
0r	.	1r	.	1G	-me,	[0g	-me,
.	.	1G	Qui	1d	Qui	.	.
=30	=30	=30	=30	=30	=30	=30	=30
0r	.	1.c	luy	1.e	luy	0g]	.
.	.	2c	font	2e	font	.	.
=31	=31	=31	=31	=31	=31	=31	=31
1C	Qui	2c	vi-	2e	vi-	1g	Qui
.	.	2c	-gle-	2e	-gle-	.	.
[1F	luy	1c	-co-	1f	-co-	[1a	luy
=32	=32	=32	=32	=32	=32	=32	=32
2F]	.	1A	-me	1f	-me	2a]	.
2F	font	.	.	.	.	2a	font
2F	vi-	1c	Di-	1f	Di-	2a	vi-
2A	-gle-	.	.	.	.	2a	-gle-
=33	=33	=33	=33	=33	=33	=33	=33
1G	-co-	1.d	-sant	1.g	-sant	1b-	-co-
1G	-me,	.	.	.	.	1b-	-me
.	.	2B-	"co-	2d	"co-	.	.
=34	=34	=34	=34	=34	=34	=34	=34
1F	Di-	1c	-ment	1f	-ment	1a	Di-
1G	-sant	1B-	.	2e	.	2g	-sant
.	.	.	.	[2d	.	[2dd	"co-
=35	=35	=35	=35	=35	=35	=35	=35
2r	.	1A	va?"	4d]	.	2dd]	.
.	.	.	.	4c	.	.	.
2F	Di-	.	.	2A	.	2cc	.
2G	-sant	2r	.	2B-	.	2b-	.
2F	"co-	2d	Di-	2c	.	2a	.
=36	=36	=36	=36	=36	=36	=36	=36
2G	-ment	2d	-sant	1G	.	2b-	-ment
2E	.	2c	"co-	.	.	4a	.
.	.	.	.	.	.	4g	.
[1D	va?"	2d	-ment	2A	.	[1f	va?"
.	.	2B-	.	[2d	va?"	.	.
=37	=37	=37	=37	=37	=37	=37	=37
1D]	.	1A	va?"	4d]	.	1f]	.
.	.	.	.	4c	.	.	.
.	.	.	.	1d	.	.	.
1G	Co-	1B-	Co-	.	.	1g	Co-
.	.	.	.	2e	Co-	.	.
=38	=38	=38	=38	=38	=38	=38	=38
1.F	-ment	1.c	-ment	1.f	-ment	1.a	-ment
2F	fet	2c	fet	2f	fet	2a	fet
=39	=39	=39	=39	=39	=39	=39	=39
2F	vos-	2c	vos-	2f	vos-	2a	vos-
2F	-tre	2c	-tre	2f	-tre	2a	-tre
1BB-	fem-	1d	fem-	1f	fem-	1b-	fem-
=40	=40	=40	=40	=40	=40	=40	=40
2BB-	-me?	1d	-me?	1f	-me?	1b-	-me?
2BB-	Fet	.	.	.	.	.	.
1F	el-	1c	Fet	1f	Fet	1a	Fet
=41	=41	=41	=41	=41	=41	=41	=41
2G	-le	2B-	el-	2d	el-	2g	el-
2F	plus	2A	-le	2f	-le	1a	-le
1G	ce-	1B-	plus	2d	plus	.	.
.	.	.	.	2e	ce-	[2g	plus
=42	=42	=42	=42	=42	=42	=42	=42
1D	-la?	1A	ce-	1d	-la?	2g]	.
.	.	.	.	.	.	2f#i	ce-
2r	.	2G	-la?	2r	.	1g	-la?
2G	Fet	2d	Fet	2B-	Fet	.	.
=43	=43	=43	=43	=43	=43	=43	=43
1G	el-	2.d	el-	2d	el-	2r	.
.	.	.	.	2e	-le	2b-	Fet
.	.	8cL	.	.	.	.	.
.	.	8B-J	.	.	.	.	.
1F	-le	2c	.	1f	plus?	2b-	el-
.	.	2c	-le	.	.	2a	-le
=44	=44	=44	=44	=44	=44	=44	=44
1BB-	plus?	2B-	plus?	2r	.	1b-	plus?
.	.	2d	Fet	2f	Fet	.	.
2r	.	1d	el-	2f	el-	2r	.
2BB-	Fet	.	.	2d	-le	2b-	Fet
=45	=45	=45	=45	=45	=45	=45	=45
1F	el-	1c	.	2f	plus	2b-	el-
.	.	.	.	2f	ce-	2a	-le
1G	-le	2B-	-le	2.d	-la?"	1b-	plus
.	.	2d	Fet	.	.	.	.
.	.	.	.	4e	.	.	.
=46	=46	=46	=46	=46	=46	=46	=46
2D	plus	2d	el-	2.f	.	1a	ce-
2F	.	2c	-le	.	.	.	.
.	.	.	.	4e	.	.	.
2G	.	2B-	plus	4d	.	2g	.
.	.	.	.	4c	.	.	.
2F	.	[2c	.	4B-	.	[2a	.
.	.	.	.	4A	.	.	.
=47	=47	=47	=47	=47	=47	=47	=47
2G	.	4c]	.	2B-	.	2a]	.
.	.	4B-	.	.	.	.	.
2E	.	2G	.	2c	.	1g	.
1D	ce-	1A	ce-	[1dl	.	.	.
.	.	.	.	.	.	2f#i	.
=48	=48	=48	=48	=48	=48	=48	=48
0Gl	-la?"	0Gl	-la?"	0d]	.	0gl	-la?"
==	==	==	==	==	==	==	==
*-	*-	*-	*-	*-	*-	*-	*-
!!!RDF**kern: l=long note in original notation
!!!RDF**kern: i=editorial accidental
!!!RDF**kern: V=start of tuplet marker
!!!RDF**kern: Z=end of tuplet marker
!!!ENC:	Jesse Rodin 24 May 2016
!!!END:	2016/05/24/
!!!EED:	Jesse Rodin
!!!EEV:	2016/05/24/
!!!ONB:	Translated from MusicXML and edited on 2016/05/24/ by Craig Sapp
!!muse2ps: C^@{COM}^i2I150v85,85,85,150Q16z18c80l2650
